static/img/kroki/8fe8e83e41647ca936814c94472e703b.svg

<?xml version="1.0" encoding="us-ascii" standalone="no"?><svg xmlns="http://www.w3.org/2000/svg" xmlns:xlink="http://www.w3.org/1999/xlink" contentStyleType="text/css" height="374px" preserveAspectRatio="none" style="width:297px;height:374px;" version="1.1" viewBox="0 0 297 374" width="297px" zoomAndPan="magnify"><defs/><g><!--class gcp_resource--><g id="elem_gcp_resource"><rect codeLine="23" fill="#3D176E" height="39.7891" id="gcp_resource" rx="2.5" ry="2.5" style="stroke:#000D19;stroke-width:0.5;" width="150" x="7" y="167.79"/><ellipse cx="22" cy="187.6845" fill="#ADD1B2" rx="11" ry="11" style="stroke:#181818;stroke-width:1.0;"/><path d="M24.9688,193.3252 Q24.3906,193.622 23.75,193.7627 Q23.1094,193.9189 22.4063,193.9189 Q19.9063,193.9189 18.5781,192.2783 Q17.2656,190.622 17.2656,187.497 Q17.2656,184.372 18.5781,182.7158 Q19.9063,181.0595 22.4063,181.0595 Q23.1094,181.0595 23.75,181.2158 Q24.4063,181.372 24.9688,181.6689 L24.9688,184.3877 Q24.3438,183.8095 23.75,183.5439 Q23.1563,183.2627 22.5313,183.2627 Q21.1875,183.2627 20.5,184.3408 Q19.8125,185.4033 19.8125,187.497 Q19.8125,189.5908 20.5,190.6689 Q21.1875,191.7314 22.5313,191.7314 Q23.1563,191.7314 23.75,191.4658 Q24.3438,191.1845 24.9688,190.6064 L24.9688,193.3252 Z " fill="#000000"/><text fill="#D9B8FF" font-family="Helvetica" font-size="17" lengthAdjust="spacing" textLength="108" x="41" y="193.5698">gcp_resource</text></g><!--class gcp_subnetwork--><g id="elem_gcp_subnetwork"><rect codeLine="26" fill="#3D176E" height="39.7891" id="gcp_subnetwork" rx="2.5" ry="2.5" style="stroke:#000D19;stroke-width:0.5;" width="178" x="72" y="328.58"/><ellipse cx="87" cy="348.4745" fill="#ADD1B2" rx="11" ry="11" style="stroke:#181818;stroke-width:1.0;"/><path d="M89.9688,354.1152 Q89.3906,354.412 88.75,354.5527 Q88.1094,354.7089 87.4063,354.7089 Q84.9063,354.7089 83.5781,353.0683 Q82.2656,351.412 82.2656,348.287 Q82.2656,345.162 83.5781,343.5058 Q84.9063,341.8495 87.4063,341.8495 Q88.1094,341.8495 88.75,342.0058 Q89.4063,342.162 89.9688,342.4589 L89.9688,345.1777 Q89.3438,344.5995 88.75,344.3339 Q88.1563,344.0527 87.5313,344.0527 Q86.1875,344.0527 85.5,345.1308 Q84.8125,346.1933 84.8125,348.287 Q84.8125,350.3808 85.5,351.4589 Q86.1875,352.5214 87.5313,352.5214 Q88.1563,352.5214 88.75,352.2558 Q89.3438,351.9745 89.9688,351.3964 L89.9688,354.1152 Z " fill="#000000"/><text fill="#D9B8FF" font-family="Helvetica" font-size="17" lengthAdjust="spacing" textLength="136" x="106" y="354.3598">gcp_subnetwork</text></g><!--class resource--><g id="elem_resource"><rect codeLine="29" fill="#3D176E" height="39.7891" id="resource" rx="2.5" ry="2.5" style="stroke:#000D19;stroke-width:0.5;" width="113" x="104.5" y="7"/><ellipse cx="119.5" cy="26.8945" fill="#ADD1B2" rx="11" ry="11" style="stroke:#181818;stroke-width:1.0;"/><path d="M122.4688,32.5352 Q121.8906,32.832 121.25,32.9727 Q120.6094,33.1289 119.9063,33.1289 Q117.4063,33.1289 116.0781,31.4883 Q114.7656,29.832 114.7656,26.707 Q114.7656,23.582 116.0781,21.9258 Q117.4063,20.2695 119.9063,20.2695 Q120.6094,20.2695 121.25,20.4258 Q121.9063,20.582 122.4688,20.8789 L122.4688,23.5977 Q121.8438,23.0195 121.25,22.7539 Q120.6563,22.4727 120.0313,22.4727 Q118.6875,22.4727 118,23.5508 Q117.3125,24.6133 117.3125,26.707 Q117.3125,28.8008 118,29.8789 Q118.6875,30.9414 120.0313,30.9414 Q120.6563,30.9414 121.25,30.6758 Q121.8438,30.3945 122.4688,29.8164 L122.4688,32.5352 Z " fill="#000000"/><text fill="#D9B8FF" font-family="Helvetica" font-size="17" lengthAdjust="spacing" textLength="71" x="138.5" y="32.7798">resource</text></g><!--class subnet--><g id="elem_subnet"><rect codeLine="32" fill="#3D176E" height="39.7891" id="subnet" rx="2.5" ry="2.5" style="stroke:#000D19;stroke-width:0.5;" width="99" x="191.5" y="167.79"/><ellipse cx="206.5" cy="187.6845" fill="#ADD1B2" rx="11" ry="11" style="stroke:#181818;stroke-width:1.0;"/><path d="M209.4688,193.3252 Q208.8906,193.622 208.25,193.7627 Q207.6094,193.9189 206.9063,193.9189 Q204.4063,193.9189 203.0781,192.2783 Q201.7656,190.622 201.7656,187.497 Q201.7656,184.372 203.0781,182.7158 Q204.4063,181.0595 206.9063,181.0595 Q207.6094,181.0595 208.25,181.2158 Q208.9063,181.372 209.4688,181.6689 L209.4688,184.3877 Q208.8438,183.8095 208.25,183.5439 Q207.6563,183.2627 207.0313,183.2627 Q205.6875,183.2627 205,184.3408 Q204.3125,185.4033 204.3125,187.497 Q204.3125,189.5908 205,190.6689 Q205.6875,191.7314 207.0313,191.7314 Q207.6563,191.7314 208.25,191.4658 Q208.8438,191.1845 209.4688,190.6064 L209.4688,193.3252 Z " fill="#000000"/><text fill="#D9B8FF" font-family="Helvetica" font-size="17" lengthAdjust="spacing" textLength="57" x="225.5" y="193.5698">subnet</text></g><!--reverse link resource to gcp_resource--><g id="link_resource_gcp_resource"><path codeLine="35" d="M143.454,63.1666 C128.274,93.6866 106.77,136.9 91.56,167.46 " fill="none" id="resource-backto-gcp_resource" style="stroke:#FFAF37;stroke-width:2.0;"/><polygon fill="none" points="151.47,47.05,138.0818,60.4945,148.8262,65.8386,151.47,47.05" style="stroke:#FFAF37;stroke-width:2.0;"/></g><!--reverse link gcp_resource to gcp_subnetwork--><g id="link_gcp_resource_gcp_subnetwork"><path codeLine="36" d="M99.546,223.9566 C114.726,254.4766 136.23,297.69 151.44,328.25 " fill="none" id="gcp_resource-backto-gcp_subnetwork" style="stroke:#FFAF37;stroke-width:2.0;"/><polygon fill="none" points="91.53,207.84,94.1738,226.6286,104.9182,221.2845,91.53,207.84" style="stroke:#FFAF37;stroke-width:2.0;"/></g><!--reverse link subnet to gcp_subnetwork--><g id="link_subnet_gcp_subnetwork"><path codeLine="37" d="M223.2496,223.9143 C207.8696,254.4343 186.08,297.69 170.68,328.25 " fill="none" id="subnet-backto-gcp_subnetwork" style="stroke:#FFAF37;stroke-width:2.0;"/><polygon fill="none" points="231.35,207.84,217.8915,221.2142,228.6077,226.6145,231.35,207.84" style="stroke:#FFAF37;stroke-width:2.0;"/></g><!--reverse link resource to subnet--><g id="link_resource_subnet"><path codeLine="38" d="M178.7504,63.1243 C194.1304,93.6443 215.92,136.9 231.32,167.46 " fill="none" id="resource-backto-subnet" style="stroke:#FFAF37;stroke-width:2.0;"/><polygon fill="none" points="170.65,47.05,173.3923,65.8245,184.1085,60.4242,170.65,47.05" style="stroke:#FFAF37;stroke-width:2.0;"/></g><!--SRC=[XP3BReCm44Nt_WfBMID1evOWTPCWLUqcgfhkAuF7O04s6fkYzF7lBILDp2F9Tixnt3lE9GSALMttj88g0JJ455BL35b5ruYwZNMfaIw4O68PZk63LlQgi6KLq4Sety7Ab8sDrrocXG9Zw8s3DYmjCjIDulrwYqoPNmJAEbPSCcFMrg9C6WjE6HubAo76vdZfOic3y0uccaOEU51yt-T1D5QkHbsy-sZiv0VGmFsqhROmgJc9-BCkjkmCf-Jaq7z-jkCpurogZDuwivU-4oh0mNoNCwxRpXQiD6wCiO2WxRw6U78LH2ikmbdvwPnCqkxhQ9RMRmX6DvW2_IJasvcR9b5WMus5I-RitkmdHtx_vNdU880Cqaxy54GEcsRPw6LFo0y0]--></g></svg>

<svg xmlns="http://www.w3.org/2000/svg" width="297" height="374" viewBox="0 0 297 374"><rect width="150" height="39.789" x="7" y="167.79" fill="#3D176E" rx="2.5" ry="2.5" style="stroke:#000d19;stroke-width:.5"/><circle cx="22" cy="187.685" r="11" fill="#ADD1B2" style="stroke:#181818;stroke-width:1"/><path d="M24.969 193.325q-.578.297-1.219.438-.64.156-1.344.156-2.5 0-3.828-1.64-1.312-1.657-1.312-4.782t1.312-4.781q1.328-1.656 3.828-1.656.703 0 1.344.156.656.156 1.219.453v2.719q-.625-.578-1.219-.844-.594-.281-1.219-.281-1.343 0-2.031 1.078-.687 1.062-.687 3.156t.687 3.172q.688 1.062 2.031 1.062.625 0 1.219-.265.594-.281 1.219-.86z"/><text x="41" y="193.57" fill="#D9B8FF" font-family="Helvetica" font-size="17" textLength="108">gcp_resource</text><rect width="178" height="39.789" x="72" y="328.58" fill="#3D176E" rx="2.5" ry="2.5" style="stroke:#000d19;stroke-width:.5"/><circle cx="87" cy="348.474" r="11" fill="#ADD1B2" style="stroke:#181818;stroke-width:1"/><path d="M89.969 354.115q-.578.297-1.219.438-.64.156-1.344.156-2.5 0-3.828-1.64-1.312-1.657-1.312-4.782t1.312-4.781q1.328-1.656 3.828-1.656.703 0 1.344.156.656.156 1.219.453v2.719q-.625-.579-1.219-.844-.594-.281-1.219-.281-1.344 0-2.031 1.078-.687 1.062-.687 3.156t.687 3.172q.688 1.062 2.031 1.062.625 0 1.219-.265.594-.281 1.219-.86z"/><text x="106" y="354.36" fill="#D9B8FF" font-family="Helvetica" font-size="17" textLength="136">gcp_subnetwork</text><rect width="113" height="39.789" x="104.5" y="7" fill="#3D176E" rx="2.5" ry="2.5" style="stroke:#000d19;stroke-width:.5"/><circle cx="119.5" cy="26.895" r="11" fill="#ADD1B2" style="stroke:#181818;stroke-width:1"/><path d="M122.469 32.535q-.578.297-1.219.438-.64.156-1.344.156-2.5 0-3.828-1.64-1.312-1.657-1.312-4.782t1.312-4.781q1.328-1.656 3.828-1.656.703 0 1.344.156.656.156 1.219.453v2.719q-.625-.578-1.219-.844-.594-.281-1.219-.281-1.344 0-2.031 1.078-.687 1.062-.687 3.156t.687 3.172q.688 1.062 2.031 1.062.625 0 1.219-.265.594-.281 1.219-.86z"/><text x="138.5" y="32.78" fill="#D9B8FF" font-family="Helvetica" font-size="17" textLength="71">resource</text><rect width="99" height="39.789" x="191.5" y="167.79" fill="#3D176E" rx="2.5" ry="2.5" style="stroke:#000d19;stroke-width:.5"/><circle cx="206.5" cy="187.685" r="11" fill="#ADD1B2" style="stroke:#181818;stroke-width:1"/><path d="M209.469 193.325q-.578.297-1.219.438-.64.156-1.344.156-2.5 0-3.828-1.64-1.312-1.657-1.312-4.782t1.312-4.781q1.328-1.656 3.828-1.656.703 0 1.344.156.656.156 1.219.453v2.719q-.625-.578-1.219-.844-.594-.281-1.219-.281-1.344 0-2.031 1.078-.687 1.062-.687 3.156t.687 3.172q.688 1.062 2.031 1.062.625 0 1.219-.265.594-.281 1.219-.86z"/><text x="225.5" y="193.57" fill="#D9B8FF" font-family="Helvetica" font-size="17" textLength="57">subnet</text><g fill="none"><path d="M143.454 63.167A500389 500389 0 0 1 91.56 167.46" style="stroke:#ffaf37;stroke-width:2"/><path d="m151.47 47.05-13.388 13.445 10.744 5.344z" style="stroke:#ffaf37;stroke-width:2"/></g><g fill="none"><path d="M99.546 223.957c15.18 30.52 36.684 73.733 51.894 104.293" style="stroke:#ffaf37;stroke-width:2"/><path d="m91.53 207.84 2.644 18.789 10.744-5.344z" style="stroke:#ffaf37;stroke-width:2"/></g><g fill="none"><path d="M223.25 223.914c-15.38 30.52-37.17 73.776-52.57 104.336" style="stroke:#ffaf37;stroke-width:2"/><path d="m231.35 207.84-13.458 13.374 10.716 5.4z" style="stroke:#ffaf37;stroke-width:2"/></g><g fill="none"><path d="M178.75 63.124c15.38 30.52 37.17 73.776 52.57 104.336" style="stroke:#ffaf37;stroke-width:2"/><path d="m170.65 47.05 2.742 18.775 10.716-5.4z" style="stroke:#ffaf37;stroke-width:2"/></g></svg>
